icons/svg/amenity/internet_access_wired.svg

<?xml version="1.0" encoding="UTF-8" standalone="no"?>
<!-- Created with Inkscape (http://www.inkscape.org/) -->

<svg
   xmlns:dc="http://purl.org/dc/elements/1.1/"
   xmlns:cc="http://creativecommons.org/ns#"
   xmlns:rdf="http://www.w3.org/1999/02/22-rdf-syntax-ns#"
   xmlns:svg="http://www.w3.org/2000/svg"
   xmlns="http://www.w3.org/2000/svg"
   xmlns:sodipodi="http://sodipodi.sourceforge.net/DTD/sodipodi-0.dtd"
   xmlns:inkscape="http://www.inkscape.org/namespaces/inkscape"
   version="1.0"
   width="580"
   height="580"
   id="svg2"
   sodipodi:version="0.32"
   inkscape:version="0.91 r"
   sodipodi:docname="internet_access_wired.svg"
   inkscape:output_extension="org.inkscape.output.svg.inkscape">
  <metadata
     id="metadata2975">
    <rdf:RDF>
      <cc:Work
         rdf:about="">
        <dc:format>image/svg+xml</dc:format>
        <dc:type
           rdf:resource="http://purl.org/dc/dcmitype/StillImage" />
        <cc:license
           rdf:resource="http://web.resource.org/cc/PublicDomain" />
        <dc:language>en</dc:language>
        <dc:title></dc:title>
      </cc:Work>
    </rdf:RDF>
  </metadata>
  <sodipodi:namedview
     inkscape:window-height="739"
     inkscape:window-width="1332"
     inkscape:pageshadow="2"
     inkscape:pageopacity="0.0"
     guidetolerance="10.0"
     gridtolerance="10.0"
     objecttolerance="10.0"
     borderopacity="1.0"
     bordercolor="#666666"
     pagecolor="#ffffff"
     id="base"
     inkscape:zoom="0.16293104"
     inkscape:cx="-90.186406"
     inkscape:cy="271.87487"
     inkscape:window-x="34"
     inkscape:window-y="1024"
     inkscape:current-layer="svg2"
     showgrid="false"
     inkscape:window-maximized="1" />
  <defs
     id="defs4">
    <inkscape:perspective
       sodipodi:type="inkscape:persp3d"
       inkscape:vp_x="0 : 290 : 1"
       inkscape:vp_y="0 : 1000 : 0"
       inkscape:vp_z="580 : 290 : 1"
       inkscape:persp3d-origin="290 : 193.33333 : 1"
       id="perspective2441" />
    <inkscape:perspective
       id="perspective2466"
       inkscape:persp3d-origin="372.04724 : 350.78739 : 1"
       inkscape:vp_z="744.09448 : 526.18109 : 1"
       inkscape:vp_y="0 : 1000 : 0"
       inkscape:vp_x="0 : 526.18109 : 1"
       sodipodi:type="inkscape:persp3d" />
    <inkscape:perspective
       id="perspective3333"
       inkscape:persp3d-origin="372.04724 : 350.78739 : 1"
       inkscape:vp_z="744.09448 : 526.18109 : 1"
       inkscape:vp_y="0 : 1000 : 0"
       inkscape:vp_x="0 : 526.18109 : 1"
       sodipodi:type="inkscape:persp3d" />
    <inkscape:perspective
       id="perspective3401"
       inkscape:persp3d-origin="372.04724 : 350.78739 : 1"
       inkscape:vp_z="744.09448 : 526.18109 : 1"
       inkscape:vp_y="0 : 1000 : 0"
       inkscape:vp_x="0 : 526.18109 : 1"
       sodipodi:type="inkscape:persp3d" />
    <inkscape:perspective
       id="perspective3464"
       inkscape:persp3d-origin="372.04724 : 350.78739 : 1"
       inkscape:vp_z="744.09448 : 526.18109 : 1"
       inkscape:vp_y="0 : 1000 : 0"
       inkscape:vp_x="0 : 526.18109 : 1"
       sodipodi:type="inkscape:persp3d" />
  </defs>
  <g
     id="g1327">
    <path
       d="M 66.275,1.768 C 24.94,1.768 1.704,23.139 1.704,66.804 L 1.704,516.927 C 1.704,557.771 22.599,579.156 63.896,579.156 L 515.92,579.156 C 557.227,579.156 578.149,558.841 578.149,516.927 L 578.149,66.804 C 578.149,24.203 557.227,1.768 514.628,1.768 C 514.624,1.768 66.133,1.625 66.275,1.768 z "
       style="fill:#111;stroke:#eee;stroke-width:3.40799999"
       id="path1329" />
  </g>
  <path
     inkscape:connector-curvature="0"
     style="fill:#ffffff;fill-opacity:1"
     d="m 445.27522,79.781228 c 30.29062,0 54.94355,24.633822 54.94355,54.943552 l 0,310.55045 c 0,30.30972 -24.65293,54.94355 -54.94355,54.94355 l -310.55045,0 c -30.29062,0 -54.943545,-24.63383 -54.943545,-54.94355 l 0,-310.55045 c 0,-30.30973 24.652925,-54.943552 54.943545,-54.943552 l 310.55045,0 m 0,-38.221597 -310.55045,0 c -51.465379,0 -93.16514,41.699757 -93.16514,93.165149 l 0,310.55045 c 0,51.46538 41.699761,93.16514 93.16514,93.16514 l 310.55045,0 c 51.46538,0 93.16515,-41.69976 93.16515,-93.16514 l 0,-310.55045 c 0,-51.465392 -41.69977,-93.165149 -93.16515,-93.165149 l 0,0 z"
     id="path3" />
  <path
     inkscape:connector-curvature="0"
     style="fill:#ffffff;fill-opacity:1"
     d="m 423.77558,213.55681 -76.44319,0 0,-38.2216 c 0,-10.56826 -8.54252,-19.11079 -19.1108,-19.11079 l -76.44319,0 c -10.56827,0 -19.11079,8.54253 -19.11079,19.11079 l 0,38.2216 -76.4432,0 c -10.56827,0 -19.11079,8.54253 -19.11079,19.1108 l 0,171.99718 c 0,10.56827 8.54252,19.1108 19.11079,19.1108 l 38.2216,0 0,-66.8878 c 0,-5.27458 4.28082,-9.5554 9.5554,-9.5554 5.27458,0 9.5554,4.28082 9.5554,9.5554 l 0,66.8878 38.22159,0 0,-66.8878 c 0,-5.27458 4.28083,-9.5554 9.5554,-9.5554 5.27458,0 9.5554,4.28082 9.5554,9.5554 l 0,66.8878 38.2216,0 0,-66.8878 c 0,-5.27458 4.28081,-9.5554 9.5554,-9.5554 5.27457,0 9.55539,4.28082 9.55539,9.5554 l 0,66.8878 38.2216,0 0,-66.8878 c 0,-5.27458 4.28082,-9.5554 9.55539,-9.5554 5.27459,0 9.55541,4.28082 9.55541,9.5554 l 0,66.8878 38.22159,0 c 10.56828,0 19.1108,-8.54253 19.1108,-19.1108 l 0,-171.99718 c 0,-10.56827 -8.54252,-19.1108 -19.1108,-19.1108 z"
     id="path5" />
</svg>

<svg width="580" height="580" viewBox="0 0 580 580" fill="none" xmlns="http://www.w3.org/2000/svg">
<g clip-path="url(#clip0)">
<path d="M66.275 1.76802C24.94 1.76802 1.70398 23.139 1.70398 66.804V516.927C1.70398 557.771 22.599 579.156 63.896 579.156H515.92C557.227 579.156 578.149 558.841 578.149 516.927V66.804C578.149 24.203 557.227 1.76802 514.628 1.76802C514.624 1.76802 66.133 1.62502 66.275 1.76802Z" fill="#111111" stroke="#EEEEEE" stroke-width="3.408"/>
<path d="M445.275 79.7812C475.566 79.7812 500.219 104.415 500.219 134.725V445.275C500.219 475.585 475.566 500.219 445.275 500.219H134.725C104.434 500.219 79.7812 475.585 79.7812 445.275V134.725C79.7812 104.415 104.434 79.7812 134.725 79.7812H445.275V79.7812ZM445.275 41.5596H134.725C83.2594 41.5596 41.5596 83.2593 41.5596 134.725V445.275C41.5596 496.741 83.2594 538.44 134.725 538.44H445.275C496.741 538.44 538.44 496.741 538.44 445.275V134.725C538.44 83.2593 496.741 41.5596 445.275 41.5596V41.5596Z" fill="white"/>
<path d="M423.776 213.557H347.332V175.335C347.332 164.767 338.79 156.224 328.222 156.224H251.778C241.21 156.224 232.668 164.767 232.668 175.335V213.557H156.224C145.656 213.557 137.114 222.099 137.114 232.668V404.665C137.114 415.233 145.656 423.776 156.224 423.776H194.446V356.888C194.446 351.613 198.727 347.332 204.001 347.332C209.276 347.332 213.557 351.613 213.557 356.888V423.776H251.778V356.888C251.778 351.613 256.059 347.332 261.334 347.332C266.608 347.332 270.889 351.613 270.889 356.888V423.776H309.111V356.888C309.111 351.613 313.392 347.332 318.666 347.332C323.941 347.332 328.222 351.613 328.222 356.888V423.776H366.443V356.888C366.443 351.613 370.724 347.332 375.999 347.332C381.273 347.332 385.554 351.613 385.554 356.888V423.776H423.776C434.344 423.776 442.886 415.233 442.886 404.665V232.668C442.886 222.099 434.344 213.557 423.776 213.557V213.557Z" fill="white"/>
</g>
<defs>
<clipPath id="clip0">
<path d="M0 0H580V580H0V0Z" fill="white"/>
</clipPath>
</defs>
</svg>
